app/assets/images/alert/icon-lock-alert-important.svg

<?xml version="1.0" encoding="UTF-8"?>
<svg width="64px" height="78px" viewBox="0 0 64 78" version="1.1" xmlns="http://www.w3.org/2000/svg" xmlns:xlink="http://www.w3.org/1999/xlink">
    <title>Safe Lock</title>
    <desc>Important: Keep it safe</desc>
    <g id="Personal-Key---WIP" stroke="none" stroke-width="1" fill="none" fill-rule="evenodd">
        <g id="lock-exclamation-red" transform="translate(-43.000000, -36.000000)">
            <g id="Group" transform="translate(44.000000, 37.000000)">
                <path d="M62,60 L62,66 C62,71.5228475 57.5228475,76 52,76 L10,76 C4.4771525,76 -2.87635993e-15,71.5228475 0,66 L0,60 L62,60 Z" id="Combined-Shape" fill="#EBF3FA"></path>
                <path d="M57,32 C59.7614237,32 62,34.2385763 62,37 L62,60 L0,60 L0,37 C-3.38176876e-16,34.2385763 2.23857625,32 5,32 L57,32 Z" id="Combined-Shape" fill="#FFFFFF"></path>
                <circle id="Oval" fill="#FFFFFF" cx="31" cy="54" r="12"></circle>
                <g id="icon-/-alerts-/-error" transform="translate(19.000000, 42.000000)" fill-rule="nonzero">
                    <g>
                        <path d="M12,24 C18.62745,24 24,18.627 24,12 C24,5.373 18.62745,0 12,0 C5.37255,0 0,5.373 0,12 C0,18.627 5.37255,24 12,24 Z" id="Path" fill="#E21C3D"></path>
                        <rect id="Rectangle" fill="#FFFFFF" x="9.75" y="15.72" width="4.5" height="4.5" rx="2"></rect>
                        <rect id="Rectangle" fill="#FFFFFF" x="9.75" y="3.75" width="4.5000001" height="10.1357145" rx="2"></rect>
                    </g>
                </g>
                <path d="M5,32 L57,32 C59.7614237,32 62,34.2385763 62,37 L62,66 C62,71.5228475 57.5228475,76 52,76 L10,76 C4.4771525,76 -6.42907361e-15,71.5228475 -3.55271368e-15,66 L-3.55271368e-15,37 C-3.89089055e-15,34.2385763 2.23857625,32 5,32 Z" id="Rectangle" stroke="#A8B6C6" stroke-width="2"></path>
                <path d="M30.5974026,-5.5067062e-14 C40.8254293,-5.694592e-14 49.1168831,8.29145385 49.1168831,18.5194805 L49.116,31.999 L40.474,31.999 L40.4744589,18.6005583 C40.4744589,13.1456107 36.0523502,8.72350203 30.5974026,8.72350203 C25.2349118,8.72350203 20.870545,12.9969791 20.7241409,18.3240947 L20.7203463,18.6005583 L20.72,31.999 L12.077,31.999 L12.0779221,18.5194805 C12.0779221,8.29145385 20.3693759,-5.3188204e-14 30.5974026,-5.5067062e-14 Z" id="Combined-Shape" stroke="#A8B6C6" stroke-width="2" fill="#FFFFFF"></path>
            </g>
        </g>
    </g>
</svg>

<svg width="64" height="78" xmlns="http://www.w3.org/2000/svg"><g transform="translate(1 1)" fill="none" fill-rule="evenodd"><path d="M62 60v6c0 5.523-4.477 10-10 10H10C4.477 76 0 71.523 0 66v-6h62z" fill="#EBF3FA"/><path d="M57 32a5 5 0 015 5v23H0V37a5 5 0 015-5h52z" fill="#FFF"/><circle fill="#FFF" cx="31" cy="54" r="12"/><g transform="translate(19 42)" fill-rule="nonzero"><path d="M12 24c6.627 0 12-5.373 12-12S18.627 0 12 0 0 5.373 0 12s5.373 12 12 12z" fill="#E21C3D"/><rect fill="#FFF" x="9.75" y="15.72" width="4.5" height="4.5" rx="2"/><rect fill="#FFF" x="9.75" y="3.75" width="4.5" height="10.136" rx="2"/></g><path d="M5 32h52a5 5 0 015 5v29c0 5.523-4.477 10-10 10H10C4.477 76 0 71.523 0 66V37a5 5 0 015-5z" stroke="#A8B6C6" stroke-width="2"/><path d="M30.597 0c10.228 0 18.52 8.291 18.52 18.52l-.001 13.479h-8.642V18.601c0-5.455-4.422-9.877-9.877-9.877-5.362 0-9.726 4.273-9.873 9.6l-.004.277v13.398h-8.643v-13.48C12.078 8.291 20.37 0 30.598 0z" stroke="#A8B6C6" stroke-width="2" fill="#FFF"/></g></svg>
